dist/img/svg/media__item__logo--2.svg

<svg width="278" height="100" viewBox="0 0 278 100" fill="none" xmlns="http://www.w3.org/2000/svg">
<g clip-path="url(#clip0_7147_14329)">
<path fill-rule="evenodd" clip-rule="evenodd" d="M110.222 0C109.63 1.24026 109.124 2.33321 108.589 3.41222C106.125 8.3673 103.683 13.3323 101.168 18.2605C100.55 19.4709 100.53 20.4843 101.155 21.7126C103.999 27.2968 106.761 32.9227 109.547 38.5348C109.758 38.9628 109.94 39.4087 110.207 40H0V0H110.222Z" fill="#2A2A2A"/>
<path d="M20.582 31.0155L15.5437 24.019H14.5606V31.0155H9V9H17.6942C20.0905 9 22.0157 9.59081 23.4698 10.7724C24.9444 11.9541 25.7125 13.7783 25.7739 16.2452C25.7739 20.1425 24.3505 22.5472 21.5036 23.4593L27.4329 31.0155H20.582ZM14.5606 19.2304H17.7863C18.8718 19.2304 19.6399 18.8157 20.0905 17.9865C20.541 17.1366 20.541 16.297 20.0905 15.4678C19.6399 14.6179 18.8718 14.1929 17.7863 14.1929H14.5606V19.2304Z" fill="white"/>
<path d="M44.8064 15.7166C44.7859 16.3178 44.5811 16.9708 44.192 17.6756C43.8233 18.3804 43.2806 18.9194 42.5637 19.2925C43.895 19.9766 44.7859 20.8888 45.2365 22.0289C45.6871 23.1691 45.8202 24.2678 45.6359 25.325C45.0419 29.1187 42.4613 31.0155 37.8941 31.0155H29.0156V9H37.7405C39.8705 9 41.5909 9.61154 42.9017 10.8346C44.2329 12.037 44.8678 13.6643 44.8064 15.7166ZM34.5454 17.6134H37.7405C38.5802 17.6134 39.1741 17.2921 39.5223 16.6494C39.891 15.9861 39.9012 15.3331 39.553 14.6904C39.2048 14.0271 38.6007 13.6954 37.7405 13.6954H34.5454V17.6134ZM34.5454 26.1335H37.7405C38.785 26.1335 39.5121 25.7604 39.9217 25.0141C40.3518 24.2471 40.3518 23.4904 39.9217 22.7441C39.4916 21.9978 38.7645 21.6247 37.7405 21.6247H34.5454V26.1335Z" fill="white"/>
<path d="M47.3828 28.0921C47.3828 27.2422 47.6798 26.5166 48.2738 25.9154C48.8677 25.3143 49.5846 25.0137 50.4243 25.0137C51.264 25.0137 51.9808 25.3143 52.5748 25.9154C53.1892 26.5166 53.4964 27.2422 53.4964 28.0921C53.4964 28.9628 53.1892 29.7091 52.5748 30.331C51.9808 30.9322 51.264 31.2327 50.4243 31.2327C49.5846 31.2327 48.8677 30.9322 48.2738 30.331C47.6798 29.7091 47.3828 28.9628 47.3828 28.0921Z" fill="white"/>
<path d="M67.7304 31.0155L62.692 24.019H61.7089V31.0155H56.1484V9H64.8425C67.2388 9 69.164 9.59081 70.6182 10.7724C72.0928 11.9541 72.8608 13.7783 72.9223 16.2452C72.9223 20.1425 71.4989 22.5472 68.652 23.4593L74.5812 31.0155H67.7304ZM61.7089 19.2304H64.9347C66.0202 19.2304 66.7882 18.8157 67.2388 17.9865C67.6894 17.1366 67.6894 16.297 67.2388 15.4678C66.7882 14.6179 66.0202 14.1929 64.9347 14.1929H61.7089V19.2304Z" fill="white"/>
<path d="M81.5997 9V23.6459C81.5997 24.3093 81.8148 24.8793 82.2449 25.3561C82.675 25.8122 83.187 26.092 83.781 26.1957C84.3954 26.2994 85.0098 26.2994 85.6242 26.1957C86.2387 26.092 86.7609 25.8122 87.191 25.3561C87.6211 24.8793 87.8362 24.3093 87.8362 23.6459V9H93.3968V23.6459C93.3968 24.7653 93.192 25.7915 92.7823 26.7243C92.3932 27.6364 91.8607 28.3931 91.1848 28.9943C90.509 29.5955 89.7307 30.1137 88.85 30.549C87.9898 30.9636 87.0784 31.2124 86.1158 31.2953C85.1737 31.3782 84.2213 31.3782 83.2587 31.2953C82.2961 31.2124 81.3744 30.9636 80.4938 30.549C79.6336 30.1137 78.8655 29.5955 78.1896 28.9943C77.5343 28.3931 77.012 27.6364 76.6228 26.7243C76.2337 25.7915 76.0391 24.7653 76.0391 23.6459V9H81.5997Z" fill="white"/>
</g>
<defs>
<clipPath id="clip0_7147_14329">
<rect width="110.222" height="40" fill="white"/>
</clipPath>
</defs>
</svg>

<svg width="278" height="100" viewBox="0 0 278 100" fill="none" xmlns="http://www.w3.org/2000/svg"><g clip-path="url(#clip0_7147_14329)"><path fill-rule="evenodd" clip-rule="evenodd" d="M110.222 0c-.592 1.24-1.098 2.333-1.633 3.412-2.464 4.955-4.906 9.92-7.421 14.849-.618 1.21-.638 2.223-.013 3.452 2.844 5.584 5.606 11.21 8.392 16.822.211.428.393.874.66 1.465H0V0h110.222z" fill="#2A2A2A"/><path d="M20.582 31.015l-5.038-6.996h-.983v6.997H9V9h8.694c2.396 0 4.322.59 5.776 1.772 1.474 1.182 2.242 3.006 2.304 5.473 0 3.897-1.424 6.302-4.27 7.214l5.929 7.556h-6.851zM14.561 19.23h3.225c1.086 0 1.854-.414 2.304-1.244.451-.85.451-1.689 0-2.518-.45-.85-1.218-1.275-2.304-1.275h-3.225v5.037zm30.245-3.513c-.02.6-.225 1.254-.614 1.959a3.741 3.741 0 01-1.628 1.617c1.331.684 2.222 1.596 2.672 2.736.451 1.14.584 2.239.4 3.296-.594 3.794-3.175 5.69-7.742 5.69h-8.878V9h8.724c2.13 0 3.85.612 5.162 1.835 1.33 1.202 1.966 2.83 1.904 4.882zm-10.26 1.896h3.194c.84 0 1.434-.32 1.782-.964.369-.663.38-1.316.031-1.959-.348-.663-.952-.995-1.813-.995h-3.195v3.918zm0 8.52h3.194c1.045 0 1.772-.373 2.182-1.119.43-.767.43-1.524 0-2.27s-1.157-1.12-2.181-1.12h-3.196v4.51zm12.837 1.959c0-.85.297-1.575.89-2.177a2.913 2.913 0 012.151-.901c.84 0 1.557.3 2.15.901.615.602.922 1.327.922 2.177 0 .87-.307 1.617-.921 2.239a2.913 2.913 0 01-2.15.902c-.84 0-1.557-.3-2.151-.902a3.127 3.127 0 01-.891-2.239zm20.347 2.923l-5.038-6.996h-.983v6.997h-5.56V9h8.694c2.396 0 4.321.59 5.775 1.772 1.475 1.182 2.243 3.006 2.304 5.473 0 3.897-1.423 6.302-4.27 7.214l5.93 7.556H67.73zM61.71 19.23h3.226c1.085 0 1.853-.414 2.304-1.244.45-.85.45-1.689 0-2.518-.45-.85-1.219-1.275-2.304-1.275H61.71v5.037zM81.6 9v14.646c0 .663.215 1.233.645 1.71.43.456.942.736 1.536.84a5.5 5.5 0 001.843 0 2.723 2.723 0 001.567-.84c.43-.477.645-1.047.645-1.71V9h5.56v14.646c0 1.12-.204 2.145-.614 3.078-.389.912-.921 1.67-1.597 2.27a10.465 10.465 0 01-2.335 1.555 7.782 7.782 0 01-2.734.746c-.942.083-1.895.083-2.857 0a8.067 8.067 0 01-2.765-.746 10.746 10.746 0 01-2.304-1.555c-.656-.6-1.178-1.358-1.567-2.27-.39-.933-.584-1.959-.584-3.078V9h5.56z" fill="#fff"/></g><defs><clipPath id="clip0_7147_14329"><path fill="#fff" d="M0 0h110.222v40H0z"/></clipPath></defs></svg>
